X: 30732
T: STAR HORNPIPE
C:
%R: hornpipe, reel
B: Elias Howe "The Musician's Companion" Part 3 1844 p.73 #2
S: http://imslp.org/wiki/The_Musician's_Companion_(Howe,_Elias)
Z: 2015 John Chambers <jc:trillian.mit.edu>
M: 2/4
L: 1/16
K: D
% - - - - - - - - - - - - - - - - - - - - - - - - -
A2 |\
dfdf ecAc | dBGB AFDF | GBAc Bged | cAA (3(ABc) |\
dAA2 eAA2 | fefg aAA2 | BdGB AGFE | D2D2D2 :|
|: A2 |\
dcdA FAFD | BGDG BGdB | gefd ecdB | cded cBAG |\
[AF]dd2 Gee2 | Aff2 Bgg2 | afdf gedc | d2d2d2 :|
% - - - - - - - - - - - - - - - - - - - - - - - - -
